!!!COM: Richard Wagner
!!!CNT: Deutsch
!!!TXO: Deutsch
!!!OTL: Gruss seiner Treuen an Friedrich August den Geliebten
!!!LYR: Wagner
!!!OPR: Sieben Kompositionen zu Goethes Faust
!!!OPS: WWV 71 - no opus info found
!!!ONM: 
!!!ENC: Ben Fuhrman
!!!YOR: IMSLP, no information given on the edition
!!!YOR: http://imslp.org/wiki/Gru%C3%9F_seiner_Treuen_an_Friedrich_August,_WWV_71_%28Wagner,_Richard%29
!!!ODT: 1844
!!NB: Only vocal melody encoded.
!!NB: First instance of melodic material only encoded.
!!created: 2/9/10 4:00PM
!!proofed and posted: 2/9/10 4:10PM
**kern	**silbe
*clef G2	*
*k[f#]	*
*M4/4	*
*MM[In ruhiger Bewegung]	*
=6	=6
2r	.
4r	.
{4g	{Im
=7	=7
2.dd	treu-
4cc	-en
=8	=8
4b	Sach-
4a	-sen-
4g	-land
4d	er-
=9	=9
4.g	-to2nt
8b	die
4.b	fro-
8dd	-he
=10	=10
2dd	Kun-
4a}	-de,}
{4a	{von
=11	=11
2.ee	Eng-
4dd	-lands
=12	=12
4dd	fer-
4cc	-nem
4b	Strand
4a	sein
=13	=13
4.a	Ko2-
8a	-nig
(8b	kehrt
8a)	|
(8b	zu
8cc#)	|
=14	=14
2dd}	-ru2ck;}
4r	.
{4d	{sie
=15	=15
4.f#	klingt
8f#	wie
(8g	Ju-
8b)	|
(8.dd	-bel-
16b)	|
=16	=16
2a	-ton,
4r	.
4d	sie
=17	=17
4.a	geht
8a#	von
(8b	Mund
8g)	|
(8.b	zu
16dd)	|
=18	=18
2dd	Mun-
4cc}	-de,}
8r	.
{8a	{der
=19	=19
4.cc	Va-
8cc	-ter
(8a	preist
8b)	|
(8cc	dem
8cc#)	|
=20	=20
2dd	Sohn,
2b	das
=21	=21
4ee	Kind
(8dd	dem
8cc)	|
4b	Greis
4a	das
=22	=22
4g}	Glu2ck.}
4r	.
2r	.
=23	=23
{2d	{Sei
4.g	uns
8b	ge-
=24	=24
1b	-gru2sst!
=25	=25
2d	Sei
4.g	uns
8b	ge-
=26	=26
2..dd}	-gru2sst}
{8cc#	{in
=27	=27
4.ccn	Dei-
8b	-ner
(8ccn	Lie-
8b)	|
(8.a	-ben
16g)	|
=28	=28
2g	Mit-
4f#	-te,
(8a	an
8cc)	|
=29	=29
4.ee	Dei-
8dd#	-ner
(8ee	Teu-
8ddn)	|
(8.cc	-ren
16b)	|
=30	=30
(2b	Brust,
4a)}	|}
4r	.
=31	=31
{2b	{treu
4.dd	Dei-
8b	-ner
=32	=32
4dd	Va2-
4cc#	-ter
4ccn	Sit-
4a	-te,
=33	=33
2b	nah
4.dd	Dei-
8b	-nes
=34	=34
4dd	Vol-
4cc#	-kes
4ccn	Lust,
4a	ge-
=35	=35
2b}	-gru2sst,}
{4.dd	{sei
8b	ge-
=36	=36
4gg	-gru2sst,
4ff#	sei
4ee	uns
4dd	e-
=37	=37
4dd	-gru2sst,
4cc	Du
4b	Dei-
4a	-nes
=38	=38
2g	Vol-
(4.a	-kes
8b)	|
=39	=39
2g}	Lust!}
2r	.
=40	=40
{2d	{Sei
4.g	uns
8b	ge-
=41	=41
1b	-gru2sst!
=42	=42
2d	Sei
4.g	uns
8b	ge-
=43	=43
1dd}	gru2sst,}
=44	=44
2r	.
{2dd#	{Du
=45	=45
(4ee	Dei-
4ddn	|
4cc)	|
(8b	-nes
8a)	|
=46	=46
2gS	Vol-
(4.b	-kes
8a)	|
=47	=47
2g}	Lust!}
2r	.
==	==
*-	*-
